X:1
T:Apsley, 87.87 D
T:Apsley, 87.87 D
T:W. J. Barger, 1897
T:Public Domain Courtesy of the Cyber Hymnal™
C:W. J. Barger, 1897
Z:Public Domain
Z:Courtesy of the Cyber Hymnal™
%%score ( 1 2 ) ( 3 4 )
L:1/8
Q:1/4=100
M:4/4
K:G
V:1 treble 
V:2 treble 
V:3 bass 
V:4 bass 
V:1
 [DG]>[DA] | [GB]2 [DG]2 [EG]3 [CE] | [B,D]2 B,2 [B,D]3 [B,D] | [CE]2 [EG]2 [EG]3 [EA] | %4
 [DG]6 [DG]>[DA] | [GB]2 [DG]2 [EG]3 [CE] | [B,D]2 B,2 [B,D]3 [B,D] | [CE]2 [EG]2 [EG]3 [EA] | %8
 [DG]6 [DG]>[GB] | [Gd]3 [Gd] [Gd]2 [Gd]2 | [GB]2 [DG]2 [EG]3 [EA] | [DB]2 [Gc]2 [Gd]3 [Ge] | %12
 [Gd]6 [Gd]>[Gd] | [Ge]2 [GB]2 [Gd]3 [GB] | [EA]2 [EG]2 [CE]3 [CG] | [B,D]2 [B,D]2 [CE]2 [CG]2 | %16
 [B,G]6 |] %17
V:2
 x2 | x8 | x2 B,2 x4 | x8 | x8 | x8 | x2 B,2 x4 | x8 | x8 | x8 | x8 | x8 | x8 | x8 | x8 | x8 | %16
 x6 |] %17
V:3
 [G,B,]>[G,C] | [G,D]2 [G,B,]2 [C,C]3 [C,G,] | [G,,G,]2 [G,,D,]2 [G,,G,]3 [G,,G,] | %3
 [C,G,]2 [C,C]2 [C,C]3 [C,C] | [G,,B,]6 [G,B,]>[G,C] | [G,D]2 [G,B,]2 [C,C]3 [C,G,] | %6
 [G,,G,]2 [G,,D,]2 [G,,G,]3 [G,,G,] | [C,G,]2 [C,C]2 [C,C]3 [C,C] | [G,,B,]6 [G,B,]>[G,D] | %9
 [G,B,]3 [G,B,] [G,B,]2 [G,B,]2 | [G,D]2 [G,B,]2 [C,C]3 [C,C] | [G,B,]2 [G,B,]2 [G,B,]3 [G,C] | %12
 [G,B,]6 [G,B,]>[G,B,] | [G,C]2 [G,D]2 [G,B,]3 [G,D] | [C,C]2 [C,C]2 [C,G,]3 [E,G,] | %15
 G,2 G,2 [C,G,]2 [C,E,]2 | [G,,D,]6 |] %17
V:4
 x2 | x8 | x8 | x8 | x8 | x8 | x8 | x8 | x8 | x8 | x8 | x8 | x8 | x8 | x8 | G,2 G,2 x4 | x6 |] %17

